X: 5
T:Pat. Healy's Hornpipe (#310)
M:4/4
L:1/8
S:John Kelly, San Francisco
R:Hornpipe
K:G
sdBs|cBAc BAGA|Bdef g2 safs|gedB cdef|gedB A2 sdBs|
cBAc BAGA|Bdef g2 (3agf|gedB cBAc|B2 G2 G2:|
|:(3def|gbaf gdBd|gbaf g2 (3agf|gedB cdef|gedB A2 dB|
cBAc BAGA|Bdef g2 safs|gedB cBAc|B2 G2 G2:||

